X: 1153
T: Hunting the Hare.
B:O'Neill's Music of Ireland
N:O'Neill's - 1153
Z:Transcribed by Stephen Foy (shf@access.digex.net)
Z:abc 1.6
M:9/8
R:slipjig
K:D
G|F2 A ABA d2 A|Bcd e2 d cBA|F2 A ABA d2 A|Bcd edc d2:|
|:g|f2 d def g2 e|a2 e efe dcB|fef def g2 e|a2 f edc d2:|


